Costumes/shirt_collar-c.svg

<?xml version="1.0" encoding="UTF-8" standalone="no"?>
<svg
   version="1.1"
   width="67.345764"
   height="107.44108"
   viewBox="0 -1 67.345764 107.44108"
   id="svg22"
   sodipodi:docname="shirt_collar-c.svg"
   xmlns:inkscape="http://www.inkscape.org/namespaces/inkscape"
   xmlns:sodipodi="http://sodipodi.sourceforge.net/DTD/sodipodi-0.dtd"
   xmlns="http://www.w3.org/2000/svg"
   xmlns:svg="http://www.w3.org/2000/svg">
  <defs
     id="defs26" />
  <sodipodi:namedview
     id="namedview24"
     pagecolor="#ffffff"
     bordercolor="#000000"
     borderopacity="0.25"
     inkscape:showpageshadow="2"
     inkscape:pageopacity="0.0"
     inkscape:pagecheckerboard="0"
     inkscape:deskcolor="#d1d1d1" />
  <!-- Exported by Scratch - http://scratch.mit.edu/ -->
  <g
     id="ID0.179924001917243"
     transform="translate(-1.8408761,-1.0737822)">
    <path
       id="ID0.8950433996506035"
       fill="#ffffff"
       stroke="#000000"
       stroke-width="1"
       stroke-linecap="round"
       d="m 80.4,254.6 c 3.756,-0.446 8.316,3.338 9.35,6.65 2.204,6.891 2.527,14.651 0.5,21.75 -0.65,2.277 -4.647,1.516 -7,1.25 -2.885,-0.331 -6.922,-0.14 -7.75,-2.75 -1.849,-5.83 -0.05,-12.14 1.25,-18 0.713,-3.199 0.937,-8.216 3.65,-8.9 z"
       transform="matrix(1.2327666,-0.29410258,0.39251405,1.4077631,-153.8,-321.25)" />
    <path
       id="ID0.8537395023740828"
       fill="#ffffff"
       stroke="#000000"
       stroke-width="2"
       stroke-linecap="round"
       d="m 153.5,66.1 c 2.649,0.289 4.547,3.524 7.25,3.4 2.469,0.03 3.985,-3.07 6.5,-3.65 2.762,-0.634 5.741,-0.54 8.5,0.45 3.349,1.208 7.876,2.496 8.75,6.15 2.922,13.447 0.218,27.643 1.1,41.4 0.175,3.454 1.556,4.91 1.9,7.45 0.321,2.376 0.046,3.058 0,7.2 -0.36,10.078 -0.96,20.179 -1.5,30.25 -0.568,10.674 -0.213,20.872 -2,30.85 -0.435,2.8 -1.79,-0.267 -3.25,-0.65 -5.249,-1.277 -10.634,-2.415 -16,-2.95 -8.714,-0.869 -17.516,-0.936 -26.25,-1.6 -2.183,-0.166 -2.962,1.912 -3.15,-0.2 -0.75,-8.449 0.353,-16.92 1.15,-25.45 1.253,-13.415 4.251,-26.7 5,-40.15 0.547,-9.759 -1.351,-20.002 0,-29.85 0.969,-7.176 2.881,-14.147 6,-20.4 1.183,-1.868 4.133,-2.445 6,-2.25 z"
       transform="matrix(-0.85737497,0,0,0.77395779,176.85,-40.9)" />
    <g
       id="ID0.08513205265626311">
      <path
         id="path4"
         fill="#ffffff"
         stroke="#000000"
         stroke-width="1"
         stroke-linecap="round"
         d="m 83,255.75 c 2.817,-0.564 6.068,2.632 6.75,5.5 1.932,6.959 2.527,14.651 0.5,21.75 -0.65,2.277 -4.647,1.516 -7,1.25 -2.885,-0.331 -6.922,-0.14 -7.75,-2.75 -1.849,-5.83 -0.395,-12.224 1.25,-18 0.947,-3.352 3.003,-7.1 6.25,-7.75 z"
         transform="matrix(1.2398585,0.26260346,-0.24868628,1.4401456,-21,-375.9)" />
    </g>
    <g
       id="ID0.03982070926576853">
      <path
         id="ID0.9186757141724229"
         fill="#ffffff"
         stroke="#000000"
         stroke-width="1"
         stroke-linecap="round"
         d="m 91.2,106.7 -9.4,-9.9 11,-9 0.2,-5 5.65,9.95 -7.25,13.75 z"
         transform="matrix(-0.85737497,0,0,0.85737497,109.05,-69.4)" />
      <path
         id="path8"
         fill="#ffffff"
         stroke="#000000"
         stroke-width="1"
         stroke-linecap="round"
         d="M 90.2,104.45 81.8,96.8 85.9,85.75 92.95,90.2 94,93.25 Z"
         transform="matrix(0.69894695,0,0,0.69894695,-18.15,-54.1)" />
    </g>
    <path
       id="ID0.14342549396678805"
       fill="none"
       stroke="#000000"
       stroke-width="1"
       stroke-linecap="round"
       d="M 124.5,101 119,200"
       transform="matrix(-0.85737497,0,0,0.88479722,145.55,-75.15)" />
    <path
       id="ID0.5860561807639897"
       fill="none"
       stroke="#000000"
       stroke-width="1"
       d="m 127.75,106 c 0.345,0 0.657,0.14 0.884,0.366 0.226,0.227 0.366,0.539 0.366,0.884 0,0.345 -0.14,0.657 -0.366,0.884 -0.227,0.226 -0.539,0.366 -0.884,0.366 -0.345,0 -0.657,-0.14 -0.884,-0.366 -0.226,-0.227 -0.366,-0.539 -0.366,-0.884 0,-0.345 0.14,-0.657 0.366,-0.884 0.227,-0.226 0.539,-0.366 0.884,-0.366 z"
       transform="matrix(-0.85737497,0,0,0.85737497,146,-72.4)" />
    <path
       id="path13"
       fill="none"
       stroke="#000000"
       stroke-width="1"
       d="m 127.75,106 c 0.345,0 0.657,0.14 0.884,0.366 0.226,0.227 0.366,0.539 0.366,0.884 0,0.345 -0.14,0.657 -0.366,0.884 -0.227,0.226 -0.539,0.366 -0.884,0.366 -0.345,0 -0.657,-0.14 -0.884,-0.366 -0.226,-0.227 -0.366,-0.539 -0.366,-0.884 0,-0.345 0.14,-0.657 0.366,-0.884 0.227,-0.226 0.539,-0.366 0.884,-0.366 z"
       transform="matrix(-0.85737497,0,0,0.85737497,146.85,-59.15)" />
    <path
       id="path15"
       fill="none"
       stroke="#000000"
       stroke-width="1"
       d="m 127.75,106 c 0.345,0 0.657,0.14 0.884,0.366 0.226,0.227 0.366,0.539 0.366,0.884 0,0.345 -0.14,0.657 -0.366,0.884 -0.227,0.226 -0.539,0.366 -0.884,0.366 -0.345,0 -0.657,-0.14 -0.884,-0.366 -0.226,-0.227 -0.366,-0.539 -0.366,-0.884 0,-0.345 0.14,-0.657 0.366,-0.884 0.227,-0.226 0.539,-0.366 0.884,-0.366 z"
       transform="matrix(-0.85737497,0,0,0.85737497,147.25,-42.85)" />
    <path
       id="path17"
       fill="none"
       stroke="#000000"
       stroke-width="1"
       d="m 127.75,106 c 0.345,0 0.657,0.14 0.884,0.366 0.226,0.227 0.366,0.539 0.366,0.884 0,0.345 -0.14,0.657 -0.366,0.884 -0.227,0.226 -0.539,0.366 -0.884,0.366 -0.345,0 -0.657,-0.14 -0.884,-0.366 -0.226,-0.227 -0.366,-0.539 -0.366,-0.884 0,-0.345 0.14,-0.657 0.366,-0.884 0.227,-0.226 0.539,-0.366 0.884,-0.366 z"
       transform="matrix(-0.85737497,0,0,0.85737497,148.35,-25.05)" />
    <path
       id="path19"
       fill="none"
       stroke="#000000"
       stroke-width="1"
       d="m 127.75,106 c 0.345,0 0.657,0.14 0.884,0.366 0.226,0.227 0.366,0.539 0.366,0.884 0,0.345 -0.14,0.657 -0.366,0.884 -0.227,0.226 -0.539,0.366 -0.884,0.366 -0.345,0 -0.657,-0.14 -0.884,-0.366 -0.226,-0.227 -0.366,-0.539 -0.366,-0.884 0,-0.345 0.14,-0.657 0.366,-0.884 0.227,-0.226 0.539,-0.366 0.884,-0.366 z"
       transform="matrix(-0.85737497,0,0,0.85737497,149.4,-6.4)" />
  </g>
</svg>

<svg version="1.1" width="71" height="109" viewBox="0 -1 71 109" xmlns="http://www.w3.org/2000/svg" xmlns:xlink="http://www.w3.org/1999/xlink">
  <!-- Exported by Scratch - http://scratch.mit.edu/ -->
  <g id="ID0.179924001917243">
    <path id="ID0.8950433996506035" fill="#FFFFFF" stroke="#000000" stroke-width="1" stroke-linecap="round" d="M 80.400 254.600 C 84.156 254.154 88.716 257.938 89.750 261.250 C 91.954 268.141 92.277 275.901 90.250 283 C 89.600 285.277 85.603 284.516 83.250 284.250 C 80.365 283.919 76.328 284.110 75.500 281.500 C 73.651 275.670 75.450 269.360 76.750 263.500 C 77.463 260.301 77.687 255.284 80.400 254.600 Z " transform="matrix(1.2327666282653809, -0.29410257935523987, 0.39251405000686646, 1.407763123512268, -153.8, -321.25)"/>
    <path id="ID0.8537395023740828" fill="#FFFFFF" stroke="#000000" stroke-width="2" stroke-linecap="round" d="M 153.500 66.100 C 156.149 66.389 158.047 69.624 160.750 69.500 C 163.219 69.530 164.735 66.430 167.250 65.850 C 170.012 65.216 172.991 65.310 175.750 66.300 C 179.099 67.508 183.626 68.796 184.500 72.450 C 187.422 85.897 184.718 100.093 185.600 113.850 C 185.775 117.304 187.156 118.760 187.500 121.300 C 187.821 123.676 187.546 124.358 187.500 128.500 C 187.140 138.578 186.540 148.679 186 158.750 C 185.432 169.424 185.787 179.622 184 189.600 C 183.565 192.400 182.210 189.333 180.750 188.950 C 175.501 187.673 170.116 186.535 164.750 186 C 156.036 185.131 147.234 185.064 138.500 184.400 C 136.317 184.234 135.538 186.312 135.350 184.200 C 134.600 175.751 135.703 167.280 136.500 158.750 C 137.753 145.335 140.751 132.050 141.500 118.600 C 142.047 108.841 140.149 98.598 141.500 88.750 C 142.469 81.574 144.381 74.603 147.500 68.350 C 148.683 66.482 151.633 65.905 153.500 66.100 Z " transform="matrix(-0.8573749661445618, 0, 0, 0.7739577889442444, 176.85, -40.9)"/>
    <g id="ID0.08513205265626311">
      <path id="ID0.8950433996506035" fill="#FFFFFF" stroke="#000000" stroke-width="1" stroke-linecap="round" d="M 83 255.750 C 85.817 255.186 89.068 258.382 89.750 261.250 C 91.682 268.209 92.277 275.901 90.250 283 C 89.600 285.277 85.603 284.516 83.250 284.250 C 80.365 283.919 76.328 284.110 75.500 281.500 C 73.651 275.670 75.105 269.276 76.750 263.500 C 77.697 260.148 79.753 256.400 83 255.750 Z " transform="matrix(1.2398585081100464, 0.2626034617424011, -0.248686283826828, 1.4401456117630005, -21, -375.9)"/>
    </g>
    <g id="ID0.03982070926576853">
      <path id="ID0.9186757141724229" fill="#FFFFFF" stroke="#000000" stroke-width="1" stroke-linecap="round" d="M 91.200 106.700 L 81.800 96.800 L 92.800 87.800 L 93 82.800 L 98.650 92.750 L 91.400 106.500 Z " transform="matrix(-0.8573749661445618, 0, 0, 0.8573749661445618, 109.05, -69.4)"/>
      <path id="ID0.9186757141724229" fill="#FFFFFF" stroke="#000000" stroke-width="1" stroke-linecap="round" d="M 90.200 104.450 L 81.800 96.800 L 85.900 85.750 L 92.950 90.200 L 94 93.250 L 90.200 104.450 Z " transform="matrix(0.6989469528198242, 0, 0, 0.6989469528198242, -18.15, -54.1)"/>
    </g>
    <path id="ID0.14342549396678805" fill="none" stroke="#000000" stroke-width="1" stroke-linecap="round" d="M 124.500 101 L 119 200 " transform="matrix(-0.8573749661445618, 0, 0, 0.884797215461731, 145.55, -75.15)"/>
    <path id="ID0.5860561807639897" fill="none" stroke="#000000" stroke-width="1" d="M 127.750 106 C 128.095 106 128.407 106.140 128.634 106.366 C 128.860 106.593 129 106.905 129 107.250 C 129 107.595 128.860 107.907 128.634 108.134 C 128.407 108.360 128.095 108.500 127.750 108.500 C 127.405 108.500 127.093 108.360 126.866 108.134 C 126.640 107.907 126.500 107.595 126.500 107.250 C 126.500 106.905 126.640 106.593 126.866 106.366 C 127.093 106.140 127.405 106 127.750 106 Z " transform="matrix(-0.8573749661445618, 0, 0, 0.8573749661445618, 146, -72.4)"/>
    <path id="ID0.5860561807639897" fill="none" stroke="#000000" stroke-width="1" d="M 127.750 106 C 128.095 106 128.407 106.140 128.634 106.366 C 128.860 106.593 129 106.905 129 107.250 C 129 107.595 128.860 107.907 128.634 108.134 C 128.407 108.360 128.095 108.500 127.750 108.500 C 127.405 108.500 127.093 108.360 126.866 108.134 C 126.640 107.907 126.500 107.595 126.500 107.250 C 126.500 106.905 126.640 106.593 126.866 106.366 C 127.093 106.140 127.405 106 127.750 106 Z " transform="matrix(-0.8573749661445618, 0, 0, 0.8573749661445618, 146.85, -59.15)"/>
    <path id="ID0.5860561807639897" fill="none" stroke="#000000" stroke-width="1" d="M 127.750 106 C 128.095 106 128.407 106.140 128.634 106.366 C 128.860 106.593 129 106.905 129 107.250 C 129 107.595 128.860 107.907 128.634 108.134 C 128.407 108.360 128.095 108.500 127.750 108.500 C 127.405 108.500 127.093 108.360 126.866 108.134 C 126.640 107.907 126.500 107.595 126.500 107.250 C 126.500 106.905 126.640 106.593 126.866 106.366 C 127.093 106.140 127.405 106 127.750 106 Z " transform="matrix(-0.8573749661445618, 0, 0, 0.8573749661445618, 147.25, -42.85)"/>
    <path id="ID0.5860561807639897" fill="none" stroke="#000000" stroke-width="1" d="M 127.750 106 C 128.095 106 128.407 106.140 128.634 106.366 C 128.860 106.593 129 106.905 129 107.250 C 129 107.595 128.860 107.907 128.634 108.134 C 128.407 108.360 128.095 108.500 127.750 108.500 C 127.405 108.500 127.093 108.360 126.866 108.134 C 126.640 107.907 126.500 107.595 126.500 107.250 C 126.500 106.905 126.640 106.593 126.866 106.366 C 127.093 106.140 127.405 106 127.750 106 Z " transform="matrix(-0.8573749661445618, 0, 0, 0.8573749661445618, 148.35, -25.05)"/>
    <path id="ID0.5860561807639897" fill="none" stroke="#000000" stroke-width="1" d="M 127.750 106 C 128.095 106 128.407 106.140 128.634 106.366 C 128.860 106.593 129 106.905 129 107.250 C 129 107.595 128.860 107.907 128.634 108.134 C 128.407 108.360 128.095 108.500 127.750 108.500 C 127.405 108.500 127.093 108.360 126.866 108.134 C 126.640 107.907 126.500 107.595 126.500 107.250 C 126.500 106.905 126.640 106.593 126.866 106.366 C 127.093 106.140 127.405 106 127.750 106 Z " transform="matrix(-0.8573749661445618, 0, 0, 0.8573749661445618, 149.4, -6.4)"/>
  </g>
</svg>
